X:1
T:Young Charlotte (Frozen Girl)
M:6/8
L:1/8
K:Eb
E-F| G2 G G2 G/2F/2| E2 B, E2 B/2B/2| c2 B c2 e| B3- B z B| c2 B c2 e|\
 E2 E E2E/2-F/2| G2 GEF-F| E3- E||
